X:1
T:Memor esto verbi tui
T:Josquin desPrez edit BMarble
T:Part two: vs. 57-64
T:Memor esto verbi tui
T:Copyright © 2016 by CPDL.  This edition can be fully distributed, duplicated, performed, and recorded
T:Copyright © 2016 by CPDL.  This edition can be fully distributed, duplicated, performed, and recorded
T:Copyright © 2016 by CPDL.  This edition can be fully distributed, duplicated, performed, and recorded
T:Copyright © 2016 by CPDL.  This edition can be fully distributed, duplicated, performed, and recorded
T:Copyright © 2016 by CPDL.  This edition can be fully distributed, duplicated, performed, and recorded
T:Copyright © 2016 by CPDL.  This edition can be fully distributed, duplicated, performed, and recorded
T:Copyright © 2016 by CPDL.  This edition can be fully distributed, duplicated, performed, and recorded
T:Copyright © 2016 by CPDL.  This edition can be fully distributed, duplicated, performed, and recorded
T:Copyright © 2016 by CPDL.  This edition can be fully distributed, duplicated, performed, and recorded
T:Copyright © 2016 by CPDL.  This edition can be fully distributed, duplicated, performed, and recorded
T:Copyright © 2016 by CPDL.  This edition can be fully distributed, duplicated, performed, and recorded
T:Copyright © 2016 by CPDL.  This edition can be fully distributed, duplicated, performed, and recorded
T:Copyright © 2016 by CPDL.  This edition can be fully distributed, duplicated, performed, and recorded
T:Copyright © 2016 by CPDL.  This edition can be fully distributed, duplicated, performed, and recorded
T:Copyright © 2016 by CPDL.  This edition can be fully distributed, duplicated, performed, and recorded
T:Copyright © 2016 by CPDL.  This edition can be fully distributed, duplicated, performed, and recorded
T:Copyright © 2016 by CPDL.  This edition can be fully distributed, duplicated, performed, and recorded
T:Copyright © 2016 by CPDL.  This edition can be fully distributed, duplicated, performed, and recorded
T:Copyright © 2016 by CPDL.  This edition can be fully distributed, duplicated, performed, and recorded
T:Copyright © 2016 by CPDL.  This edition can be fully distributed, duplicated, performed, and recorded
T:Copyright © 2016 by CPDL.  This edition can be fully distributed, duplicated, performed, and recorded
T:Copyright © 2016 by CPDL.  This edition can be fully distributed, duplicated, performed, and recorded
T:Copyright © 2016 by CPDL.  This edition can be fully distributed, duplicated, performed, and recorded
C:Josquin desPrez
C:edit BMarble
Z:Part two: vs. 57-64
Z:Copyright © 2016 by CPDL.  This edition can be fully distributed, duplicated, performed, and recorded
%%score [ 1 2 3 4 ]
L:1/8
Q:1/4=120
M:4/4
K:C
V:1 treble nm="SOPRANO" snm="S."
V:2 treble nm="ALTO" snm="A."
V:3 treble-8 transpose=-12 nm="TENOR" snm="T."
V:4 bass nm="BASS" snm="B."
V:1
 z8 | z8 | z8 | z8 | z8 | z8 | z8 | z8 | z8 | z8 | F6 G2 | A4 D4 | F6 G2 | A4 D4 | A6 B2 | c4 F4 | %16
w: ||||||||||Me- mor|e- sto|ver- bi|tu- i|ser- vo|tu- o,|
 A6 B2 | c4 F4 | (c3 d e2) f2- | (fe) (d4 ^c2) | d8- |"^A" d8 | z8 | z8 | z8 | z8 | z4 z2 G2 | %27
w: in quo|mi- hi|spem _ _ de-|* * di- *|sti.|_|||||in|
 A3 =B c2 F2 | A4 G4 | F4 F4 | G4 G4 | A6 G2 | (F2 E2 D2) G2- | (GF E2 D4) | C4 C4 | D4 E4 | %36
w: hu- mi- li- ta-|te me-|a, qui-|a e-|lo- qui-|um _ _ tu-||um vi-|vi- fi-|
 F3 G A2 =B2- | BA d4 ^c2 |"^B" d8- | d8- | d8 | z8 | z8 | z8 | z8 | z4 A4 | =B4 A4 | d6 d2 | %48
w: ca- vit, vi- vi-|* fi- ca- vit|me.|_||||||Su-|per- bi|i- ni-|
 c4 f4 | e4 d4 | d2 d2 d4 | c2 f2 e2 d2- | (dc_BA B4) |"^C" A8 | z8 | z8 | z8 | z4 c4 | _B2 A2 B4 | %59
w: que a-|ge- bant|us- que- qua-|que, us- que- qua-||que;||||non|de- cli- na-|
 A8 | z8 | z4 F4 | E2 D2 E4 | DEFG A3 B | c2 d4 ^c2 | d4 z2 d2 | d2 d2 d4 | =c8- | c8 ||"^D" z8 | %70
w: vi,||non|de- cli- na-|||vi, non|de- cli- na-|vi.|_||
 z8 | z8 | z8 | z8 | z8 | z8 | z8 | z8 | z8 | z4 z2 G2 | A3 G F2 E2 | D8 |"^E" z8 | z8 | z8 | z8 | %86
w: |||||||||et|con- so- la- tus|sum.|||||
 z8 | z8 | z8 | z8 | z4 z2 A2 | B2 c2 d2 B2 | A4 G2 F2 | E4 D2 (A2 | G2) F2 E4 |"^F" D8 | z8 | z8 | %98
w: ||||de-|re- lin- quen- ti-|bus le- gem|tu- am, le-|* gem tu-|am.|||
 z8 | A4 A2 A2 | A4 G4 | (A4 c4-) | c2 (BA B4) | A8 | z8 | z8 | z8 | A4 A2 A2 | A4 G4 | A4 c4- | %110
w: |Can- ta- bi-|les mi-|hi _|_ e- * *|rant||||ju- sti- fi-|ca- ti-|o- nes|
 c2 (BA B4) |"^G" A8 | z8 | z8 | z8 | z8 | z8 | z4 E4 | F4 E4 | z2 A2 G2 G2 | c6 B2 | A2 G2 F4 | %122
w: _ tu- * *|ae||||||in|lo- co|pe- re- gri-|na- ti-|o- nes me-|
"^H" (E6 ^F2 | G8) | z8 | z8 | z4 D4 | A4 A4 | G8 | d8 | c4 z2 c2 | B2 G2 B4 | (A3 G AB c2-) | %133
w: ae. _|_|||Me-|mor fu-|i|no-|cte no-|mi- nis tu-||
 (c2 B2) G2 A2- | (A2 G2) F4 | E8 |"^I" z8 | z8 | z8 | z2 B2 B2 B2 | d4 A4 | c4 (B3 A | %142
w: * * i, Do-|* * mi-|ne,||||et cu- sto-|di- vi|le- gem _|
 Bc d4) ^c2 |"^J" d8- | d8 | z2 A2 A2 A2 | c8 | B8 | A4 z4 | A4 A4- | A2 A2 A2 A2 | A2 A2 A2 A2 | %152
w: _ _ _ tu-|am.|_|Haec fa- cta|est|mi-|hi,|qui- a|_ ju- sti- fi-|ca- ti- o- nes|
 (A4 G4) | A4 (c3 B | A2) G2 F4 |"^K" E8 | z8 | z8 | z8 | z8 | z8 | z4 B4 | (c2 B2) A4 | G8- | %164
w: tu- *|as ex- *|* qui- si-|vi,||||||ex-|qui- * si-|vi.|
 G8 !fermata!z8 ||"^L"[Q:1/2=64] z4"^sopr" A4 | A2 A2 A2 G2 | (A2 B2 c4-) | c2 (BA) G4 | %169
w: _|Por-|ti- o me- a,|Do- * *|* mi- * ne,|
 G2 G2 G2 G2 | G4 (D3 E | FG A4) G2- | G2 F2 E4 | D4 z4 |"^M" D6 E2 | F2 G2 A4 | z4 c4 | c4 c4 | %178
w: di- xi cu- sto-|di- re _|_ _ _ le-|* gem tu-|am.|De- pre-|ca- tus sum|fa-|ci- em|
 c8 | B4 B4 | B2 B2 B4 | A3 G AB c2- | c2 B2 A4 | G4 z4 |"^N" G6 G2 | G2 G2 F4 | E2 A,2 (C3 D | %187
w: tu-|am in|to- to cor-||* de me-|o;|mi- se-|re- re me-|i se- cun- *|
 E2) A,2 z2 E2 | F2 G2 A2 (DE | FGAF) G2 A2- | (A2 F2 E4) |"^O" D8 | z8 | z8 | z8 | z8 | z8 | z8 | %198
w: * dum e-|lo- qui- um tu- *|* * * * um, tu-||um.|||||||
 z8 | z8 | z8 | z8 |"^P" z8 | z8 | z8 | z8 | z4 D4 | A6 G2 | F2 E2 D2 d2- | (d2 ^cB c4) |"^Q" d8 | %211
w: ||||||||in|te- sti-|mo- ni- a tu-||a.|
 z8 | z8 | z2 A2 B2 =c2 | d6 A2 | B2 c2 F2 c2- | (c2 A2 G4) |"^R" F4 A4 | A4 A4- | A2 A2 G4 | %220
w: ||Pa- ra- tus|sum et|non sum tur- ba-||tus, ut|cu- sto-|* di- am|
 (c3 B A2 G2) | F2 E2 D4 | C2 (cB) (AG) A2- | A2 (GF) E2 (cB) | (AG) A4 (GF) | E2 (cB) (AG) A2- | %226
w: man- * * *|da- ta tu-|a, man- * da- * ta|_ tu- * a, man- *|da- * ta tu- *|a, man- * da- * ta,|
 A2 (GF E4) | D8 ||[M:3/2]"^S"[Q:1/2=96][Q:1/2=96] z12 | z12 | z12 | z12 | z12 | z12 | z12 | z12 | %236
w: _ tu- * *|a.|||||||||
 z12 | z12 | z12 ||[M:4/4][Q:1/2=64] z8 |"^T" A4 c2 c2 | B4 A4 | c4 B4 | A4 z4 | z8 | z8 | %246
w: ||||Me- di- a|no- cte|sur- ge-|bam|||
 z2 A2 G2 E2 | F2 G2 A4 | E4 z4 | z4 A4 | G2 E2 F2 G2 | E2 F2 G2 E2 | F2 G2 A2 F2 | E4 D4 | z8 | %255
w: ad con- fi-|ten- dum ti-|bi,|su-|per ju- di- ci-|a ju- sti- fi-|ca- ti- o- nes|tu- ae.||
 z8 | z8 | z8 |"^U" z8 | A6 A2 | G4 A4 | F4 E4 | z8 | z8 ||[M:3/2][Q:1/2=96] G4 G4 G4 | G8 F4 | %266
w: ||||Par- ti-|ceps e-|go sum|||o- mni- um|ti- men-|
 G4 A8 | G12 ||[M:4/4]"^V"[Q:1/2=64] z8 | z8 | z4 A4- | A2 A2 A2 G2 | A2 F2 E4 || %273
w: ti- um|te,|||et|_ cu- sto- di-|en- ti- um|
[M:3/2][Q:1/2=96] D8 E4 | F4 G8 | F8 z4 | F8 E4 | F4 G8 ||[M:4/4] F8- |[Q:1/2=64] F8 |"^W" z8 | %281
w: man- da-|ta tu-|a,|man- da-|ta tu-|a.|_||
 A4 A2 A2 | B2 c2 d4 | d8 | c4 B4- | B2 B2 B4 | z2 A2 B2 c2- | c2 (BA G4) | F2 A2 B2 c2- | %289
w: Mi- se- ri-|cor- di- a|tu-|a, Do-|* mi- ne,|ple- na est|_ ter- * *|ra, ple- na est|
 c2 (_BA G4) | F4 z4 |"^X"[Q:1/2=56] z4 c4 | c2 c2 c2 c2 | =B2 c2 A2 G2- | G2 _B4 A2- | (AGFE) F4 | %296
w: _ ter- * *|ra;|ju-|sti- fi- ca- ti-|o- nes tu- as|_ do- ce|_ _ _ _ me.|
 z8 | z8 | z8 | z4 A4 | A2 A2 A4 | G2 (c3 BAG) | (F2 A2) G4 | F8 | z8 | z8 | z4 A4- | A2 A2 A2 A2 | %308
w: |||Glo-|ri- a Pa-|tri et _ _ _|Fi- * li-|o|||et|_ Spi- ri- tu-|
 (G3 F) E4 | D4 z4 |"^Y" D3 E F2 D2 | z8 | D3 E F2 D2 | z8 | F3 G A2 F2 | z8 | A3 B c2 A2 | z8 | %318
w: i _ San-|cto.|Me- mor e- sto||ver- bi tu- i||ser- vo tu- o,||in quo mi- hi||
 (c3 d e2) f2- | (fe) (d4 ^c2) |"^Z" d4 z4 | A3 B c2 A2 | (c3 d e2) f2- | (fe) (d4 =c=B) | c8- | %325
w: spem _ _ de-|* * di- *|sti,|in quo mi- hi|spem _ _ de-|* * di- * *|sti.|
 c8- | c16 |] %327
w: _||
V:2
 z8 | z8 | z8 | z8 | z8 | z8 | z8 | z8 | z8 | z8 | z4 F4- | F2 G2 A4 | D4 F4- | F2 G2 A4 | D4 A4- | %15
w: ||||||||||Me-|* mor e-|sto ver-|* bi tu-|i ser-|
 A2 B2 c4 | F4 A4- | A2 B2 c4 | F2 (c3 BAG | F2) G2 E4 | D8- | D8 | z8 | z8 | z8 | z8 | %26
w: * vo tu-|o, in|_ quo mi-|hi spem _ _ _|_ de- di-|sti.|_|||||
 z2 C2 D2 E2 | F2 D2 C2 D2- | (DC F4 E2) | F8 | z8 | z8 | z8 | z8 | z8 | z4 G4 | A3 G (F2 E2 | %37
w: in hu- mi-|li- ta- te me-||a,||||||vi-|vi- fi- ca- *|
 D3) (F E4) | D8- | D8 | z8 | z8 | z8 | z8 | z8 | z8 | z8 | z4 D4 | E4 D4 | G6 G2 | F4 _B4 | %51
w: * vit _|me.|_||||||||Su-|per- bi|i- ni-|que a-|
 A4 G4 | G2 G2 G4 | F8 | z8 | z8 | z8 | z8 | z8 | z4 A4 | G2 F2 G4 | F8 | z8 | z4 z2 A2- | %64
w: ge- bant|us- que qua-|que;||||||non|de- cli- na-|vi,||de-|
 A2 G2 A4 | F4 z2 F2 | F2 F2 F4 | E8- | E8 || z8 | z8 | z8 | z8 | z8 | z8 | z8 | z8 | z8 | z8 | %79
w: * cli- na-|vi, non|de- cli- na-|vi.|_|||||||||||
 z4 z2 E2 | F3 E D2 C2 | D8 | z8 | z8 | z8 | z8 | z8 | z8 | z8 | z8 | z2 D2 E2 F2 | G2 E2 D4 | %92
w: et|con- so- la- tus|sum.|||||||||de- re- lin-|quen- ti- bus|
 F4 E2 D2- | (D2 ^C2) D2 (F2 | E2) D4 ^C2 | D4 F4- | (F2 ED) E4 | z8 | z8 | E4 E2 E2 | E4 D4 | %101
w: le- gem tu-|* * am, le-|* gem tu-|am, tu-|* * * am.|||Can- ta- bi-|les mi-|
 (E3 D E2) F2- | (FE A4 ^G2) | A2 (F4 ED | F4) E4 | z8 | z8 | E4 E2 E2 | E4 D4 | (E3 D E2) F2- | %110
w: hi _ _ e-||rant, e- * *|* rant|||ju- sti- fi-|ca- ti-|o- * * nes|
 (FE) (A4 ^G2) | A8 | z8 | z8 | z8 | z8 | z4 E4 | F4 E4 | z2 A2 G2 G2 | c4 B4 | (A3 G E2) (G2 | %121
w: _ _ tu- *|ae|||||in|lo- co|pe- re- gri-|na- ti-|o- * * nes|
 FE) (E4 D2) | E2 (C4 B,A,) | B,8 | z8 | z8 | z8 | z4 A,4 | E4 E4 | D8 | A8 | G4 z2 G2 | F2 D2 F4 | %133
w: _ _ me- *|ae, me- * *|ae.||||Me-|mor fu-|i|no-|cte no-|mi- nis tu-|
 (E3 D E2) F2- | (F2 E4) D2 | E8 | z8 | z8 | z4 z2 E2 | E2 E2 G4 | D4 F4 | (E3 D EF G2-) | %142
w: i, _ _ Do-|* * mi-|ne,|||et|cu- sto- di-|vi le-|gem _ _ _ _|
 (GF D2) E4 | D8 | z2 D2 D2 D2 | F4 D4 | E6 F2 | G2 (D2 G4) | F8- | F8 | z8 | z8 | z8 | z8 | z8 | %155
w: _ _ _ tu-|am.|Haec fa- cta|est, haec|fa- cta|est mi- *|hi,|_||||||
 z8 | E4 E4 | z4 E4 | E6 E2 | E2 E2 E2 E2 | (E4 D4) | E4 (G3 F | E2) D2 C4 | B,8- | %164
w: |qui- a|ju-|sti- fi-|ca- ti- o- nes|tu- *|as ex- *|* qui- si-|vi.|
 B,8 !fermata!z8 || z8 | z8 | z8 | z8 | z8 | z8 | z8 | z8 | z8 | z4 D4- | D2 E2 F2 G2 | A4 z4 | %177
w: _||||||||||De-|* pre- ca- tus|sum|
 A4 A2 A2 | A4 E4 | z2 G2 G2 G2 | G4 D3 E | FG F4 (ED | C2) (E4 D2) | E4 z4 | E6 E2 | E2 E2 D4 | %186
w: fa- ci- em|tu- am|in to- to|cor- * *|* * * de _|_ me- *|o;|mi- se-|re- re me-|
 C4 z2 A,2 | (C3 D E2) A,2 | z2 E2 F3 G | A2 D2 E2 F2- | (FE D4 ^C2) | D8 | z8 | z8 | z8 | z8 | %196
w: i se-|cun- * * dum|e- lo- qui-|um tu- um, tu-||um.|||||
 z8 | z8 | z8 | z8 | z8 | z8 | z8 | z8 | z8 | z8 | D4 A4- | A2 G2 F2 E2 | D4 (F4 | E3 D E4) | D8 | %211
w: ||||||||||in te-|* sti- mo- ni-|a tu-||a.|
 z8 | z8 | z4 z2 A,2 | B,2 C2 D4- | D2 C2 D2 E2 | C2 (F4 E2) | F8 | z2 F4 F2 | F2 F2 (E3 C | %220
w: ||Pa-|ra- tus sum|_ et non sum|tur- ba- *|tus,|ut cu-|sto- di- am _|
 C4) z2 C2 | D2 E2 (F3 D | F2) E4 F2- | F2 (ED) C2 (AG) | (FE) F4 (ED) | C2 (AG) (FE) F2- | %226
w: _ man-|da- ta tu- *|* a, man-|* da- * ta, man- *|da- * ta tu- *|a, man- * da- * ta,|
 F2 (ED ^CDEC) | D8 ||[M:3/2] z12 | z12 | z12 | z12 | z12 | z12 | z12 | z12 | z12 | z12 | z12 || %239
w: _ tu- * * * * *|a.||||||||||||
[M:4/4] z4 D4 | F2 F2 E4 | D4 F4 | E4 D4 | z8 | z8 | z4 z2 D2 | C2 A,2 B,2 C2 | D4 A,4 | z8 | z8 | %250
w: Me-|di- a no-|cte sur-|ge- bam|||ad|con- fi- ten- dum|ti- bi,|||
 E4 D2 B,2 | C2 D2 B,2 C2 | D2 B,2 C2 D2 | E2 C2 B,4 | A,4 z4 | z8 | z8 | z8 | D6 D2 | C4 D4 | %260
w: su- per ju-|di- ci- a ju-|sti- fi- ca- ti-|o- nes tu-|ae.||||Par- ti-|ceps e-|
 B,4 A,4 | z8 | z8 | z8 ||[M:3/2] E4 E4 E4 | E8 F4 | E4 (D6 C2) | E12 ||[M:4/4] z4 D4- | %269
w: go sum||||o- mni- um|ti- men-|ti- um _|te,|et|
 D2 D2 D2 C2 | D2 B,2 A,4 | z8 | z8 ||[M:3/2] F8 E4 | D4 (C6 B,2) | D8 z4 | F8 E4 | D4 (C6 B,2) || %278
w: _ cu- sto- di-|en- ti- um|||man- da-|ta tu- *|a,|man- da-|ta tu- *|
[M:4/4] D8- | D8 | z4 D4 | D2 D2 E2 F2 | G4 z4 | D4 D2 D2 | E2 F2 G4 | G8 | F4 E4- | E2 E2 E4 | %288
w: a.|_|Mi-|se- ri- cor- di-|a,|mi- se- ri-|cor- di- a|tu-|a, Do-|* mi- ne,|
 (F3 D) D2 E2- | (EC F4) E2 | F4 z4 | F4 F2 F2 | F2 F2 E2 F2 | D2 C4 E2- | (ED) (D4 ^C2) | D8 | %296
w: ple- * na est|_ _ _ ter-|ra;|ju- sti- fi-|ca- ti- o- nes|tu- as do-|* * ce _|me.|
 z8 | z8 | z8 | z4 F4 | F2 F2 F4 | E4 C4 | D4 E4 | F4 z2 F2- | F2 F2 F2 F2 | E4 C4 | D4 F4- | %307
w: |||Glo-|ri- a Pa-|tri et|Fi- li-|o et|_ Spi- ri- tu-|i San-|cto, et|
 F2 F2 F2 F2 | E4 ^C4 | D8 | z2 D3 E F2 | D4 z4 | z2 D3 E F2 | D4 z4 | z2 F3 G A2 | F4 z4 | %316
w: _ Spi- ri- tu-|i San-|cto.|Me- mor e-|sto|ver- bi tu-|i|ser- vo tu-|o,|
 z2 A3 B c2 | A4 z4 | z2 (c3 BAG | F2) G2 E4 | D8 | z2 A3 B c2 | A2 (c3 BAG) | F4 G4 | A8- | A8- | %326
w: in quo mi-|hi|spem _ _ _|_ de- di-|sti,|in quo mi-|hi spem _ _ _|de- di-|sti.|_|
 A16 |] %327
w: |
V:3
 F6 G2 | A4 D4 | F6 G2 | A4 D4 | A6 B2 | c4 F4 | A6 B2 | c4 F4 | (c3 d e2) f2- | (fe) (d4 ^c2) | %10
w: Me- mor|e- sto|ver- bi|tu- i|ser- vo|tu- o,|in quo|mi- hi|spem _ _ de-|* * di- *|
 d8- | d8- | d8 | z8 | z8 | z8 | z8 | z8 | z8 | z8 | z8 | z4 A4- | A4 A4 | c6 c2 | c2 c2 B2 G2 | %25
w: sti.|_||||||||||Haec|_ me|con- so-|la- ta est in|
 A2 B2 c4 | A2 F2 _B4 | A8 | z4 c4 | d4 d4 | e3 d c2 =B2 | A3 G F2 (E2 | D2) C2 G3 A | B2 c4 B2 | %34
w: hu- mi- li-|ta- te me-|a,|qui-|a e-|lo- qui- em, e-|lo- qui- um tu-|* um vi- vi-|fi- ca- vit|
 c8 | z8 | z8 | z8 | z4 A4 | =B4 A4 | d6 d2 | c4 f4 | e4 d4 | z2 (f3 e d2 | c2) A2 _B4 | A8 | %46
w: me.||||Su-|per- bi|i- ni-|que a-|ge- bant|us- * *|* que- qua-|que,|
 z2 d2 d2 d2- | (dc=BA B4) | A4 z4 | z8 | z8 | z8 | z8 | z2 d2 f2 f2 | f4 (c3 d | ef g4) f2- | %56
w: us- que- qua-||que;|||||a le- ge|au- tem _|_ _ _ tu-|
 (fg e2 d4) | c2 (FG) (AB)(cd) | (e2 f4 e2) | f2 (FG) (AB)(cd) | (e2 f4 e2) | f8 | z8 | z4 f4 | %64
w: |a non _ de- * cli- *|na- * *|vi, non _ de- * cli- *|na- * *|vi,||non|
 e2 d2 e4 | d4 z2 D2 | F2 D2 (F3 G) | A4 z2 A2- | (AG)(A=B) c2 A2- || (A2 GF) E4 | z4 G4 | A4 B4 | %72
w: de- cli- na-|vi, non|de- cli- na- *|vi, non|_ _ de- * cli- na-|* * * vi.|Me-|mor fu-|
 c2 A2 B2 c2 | d4 c2 A2 | c4 B2 G2 | A2 B2 c4 | B6 B2 | B4 z2 d2 | e3 d c2 B2 | A4 z4 | z8 | z8 | %82
w: i ju- di- ci-|o- rum tu-|o- rum a|sae- cu- lo,|Do- mi-|ne, et|con- so- la- tus|sum.|||
 z2 A2 A2 A2 | A2 c4 B2 | A4 B4 | z2 A2 A2 F2 | G2 A2 D4 | z2 A2 B2 c2 | d2 B2 A4 | z2 A2 B2 c2 | %90
w: De- fe- cti-|o te- nu-|it me,|pro pec- ca-|to- ri- bus|de- re- lin-|quen- ti- bus,|de- re- lin-|
 d2 B2 A4 | z8 | z8 | z8 | z8 | z8 | z8 | A4 A2 A2 | A4 G4 | (A4 c4-) | c2 (BA B4) | A8 | z8 | z8 | %104
w: quen- ti- bus.|||||||Can- ta- bi-|les mi-|hi _|_ e- * *|rant|||
 z8 | A4 A2 A2 | A4 G4 | A4 c4- | c2 (BA B4) | A8 | z4 e4 | f4 e4 | z2 d2 c2 c2 | f4 e4 | %114
w: |ju- sti- fi-|ca- ti-|o- nes|_ tu- * *|ae|in|lo- co|pe- re- gri-|na- ti-|
 (d3 c A2) (c2 | BA) (A4 ^G2) | A8- | A8 | z8 | z8 | z8 | z4 D4 | A4 A4 | G8 | d8 | c4 z2 c2 | %126
w: o- * * nes|_ _ me- *|ae.|_||||Me-|mor fu-|i|no-|cte no-|
 B2 G2 B4 | (A3 G AB) c2- | c2 (BA) (G3 F | G2) (A2 D3 E | F2) E2 (A4 | E8) | z8 | z8 | z8 | z8 | %136
w: mi- nis tu-|i, _ _ _ Do-|* mi- * ne, _|_ Do- * *|* mi- ne,|_|||||
 z2 B2 B2 B2 | d4 A4 | c2 B2 c4 | B8 | z8 | z8 | z4 A4 | B4 G4 | d8 | d8 | c4 z4 | d4 d4- | %148
w: et cu- sto-|di- vi|le- gem tu-|am.|||Haec|fa- cta|est|mi-|hi|qui- a|
 d2 d2 d2 d2 | d2 d2 d2 d2 | (d4 c4) | d4 (f3 e | d2) c2 B4 | (ABcd e2) f2- | f2 e4 d2 | %155
w: _ ju- sti- fi-|ca- ti- o- nes|tu- *|as ex- *|* qui- si-|vi, _ _ _ _ ex-|* qui- si-|
 e2 A2 c2 A2 | c3 d e2 A2 | (c6 BA | c4) B4 | z2 c2 A2 c2- | (cB) B4 A2 | (c4 B4) | z4 e4- | %163
w: vi, qui- a ju-|sti- fi- ca- ti-|o- * *|* nes|tu- as ex-|* * qui- si-|vi, _|ex-|
 e2 e2 e4 | e8 !fermata!z8 || d4 d2 d2 | d2 c2 (d2 e2 | f6) (ed) | c4 c2 c2 | c2 c2 c4 | %170
w: * qui- si-|vi.|Por- ti- o|me- a, Do- *|* mi- *|ne, di- xi|cu- sto- di-|
 (G3 A Bc d2-) | d2 (AB cd e2-) | e2 d4 ^c2 | d8- | d8 | z8 | A6 B2 | c2 d2 e4 | z2 e2 e2 e2 | %179
w: re _ _ _ _|_ le- * * * *|* gem tu-|am.|_||De- pre-|ca- tus sum|fa- ci- em|
 e4 B4 | z2 d2 d2 d2 | (d4 c3 B | A2) G2 A4 | B4 z4 | c6 c2 | c2 c2 (F3 G) | A8- | A8 | z8 | z8 | %190
w: tu- am|in to- to|cor- * *|* de me-|o;|mi- se-|re- re me- *|i.|_|||
 z8 | z8 | A4 d4 | c4 A4 | c6 c2 | (c3 A B4) | A8 | z4 A4 | d4 c4 | A4 c4- | c2 c2 (c3 A | B4) A4 | %202
w: ||Co- gi-|ta- vi|vi- as|me- * *|as,|et|con- ver-|ti pe-|* des me- *|* os|
 z4 D4 | A6 G2 | F2 E2 D2 d2- | (d2 ^cB c4) | d8 | z8 | z8 | z8 | z4 z2 A2 | B2 =c2 d4- | %212
w: in|te- sti-|mo- ni- a tu-||a.||||Pa-|ra- tus sum|
 d2 A2 B2 c2 | d3 (f e4) | d8 | z8 | z8 | z4 c4 | c4 c4- | c2 c2 c4 | z2 A2 F2 G2 | A4 D4 | %222
w: _ et non sum|tur- ba- *|tus,|||ut|cu- sto-|* di- am|man- da- ta|tu- a,|
 z4 z2 A2 | F2 G2 A4 | D4 z4 | z4 z2 A2 | F2 G2 A4 | D8 ||[M:3/2] z12 | A8 A4 | A4 G4 c4- | %231
w: man-|da- ta tu-|a,|man-|da- ta tu-|a.||Fu- nes|pec- ca- to-|
 c4 B4 z4 | B8 B4 | B4 A4 d4- | d4 c4 z4 | c8 c4 | B4 e8 | d8 z4 | d8 ^c4 ||[M:4/4] (3:2:2d4 B8 | %240
w: * rum|cir- cum-|ple- xi sunt|_ me,|et le-|gem tu-|am|non sum|o- bli-|
 A8 | z8 | z8 | z2 A2 c2 c2 | B4 A4 | c4 B4 | A4 z4 | z8 | z2 A2 G2 E2 | F2 G2 A4 | E4 z4 | z8 | %252
w: tus.|||Me- di- a|no- cte|sur- ge-|bam||ad con- fi-|ten- dum ti-|bi,||
 z8 | z4 z2 d2 | c2 A2 B2 c2 | A2 B2 c2 A2 | B2 c2 d2 B2 | A4 G4 | z8 | z8 | z8 | z8 | e6 e2 | %263
w: |su-|per ju- di- ci-|a ju- sti- fi-|ca- ti- o- nes|tu- ae.|||||Par- ti-|
 d4 e4 ||[M:3/2] c6 B6 | B4 B4 B4 | B8 A4 | B4 c8 ||[M:4/4] B8 | z8 | d6 d2 | d2 c2 d2 B2 | A8 || %273
w: ceps e-|go sum|o- mni- um|ti- men-|ti- um|te,||et cu-|sto- di- en- ti-|um|
[M:3/2] z12 | A8 G4 | A4 _B8 | A8 z4 | A8 G4 ||[M:4/4] (3:2:2A4 _B8 | A4 z2 D2- | (DE) F2 D2 d2- | %281
w: |man- da-|ta tu-|a,|man- da-|ta tu-|a. Mi-|* * se- ri- cor-|
 d2 cB A4 | G4 z4 | z8 | z8 | z8 | z8 | z8 | z8 | z8 | z8 | z8 | z8 | z8 | z8 | z4 A4 | A2 A2 A4 | %297
w: * di- a tu-|a.|||||||||||||Glo-|ri- a Pa-|
 (G3 A Bc d2) | c2 f4 e2 | f8 | z8 | z8 | z8 | z4 d4- | d2 d2 c2 A2 | =B4 G4 | A4 z2 d2- | %307
w: tri _ _ _ _|et Fi- li-|o||||et|_ Spi- ri- tu-|i San-|cto, et|
 d2 d2 d2 d2 | (G4 A4) | (F6 D2) | D8 | z2 D3 E F2 | D4 z4 | z2 D3 E F2 | D4 z4 | z2 F3 G A2 | %316
w: _ Spi- ri- tu-|i _|San- *|cto.|Me- mor e-|sto|ver- bi tu-|i|ser- vo tu-|
 F4 z4 | z2 A3 B c2 | A4 z4 | z8 | f6 f2 | f4 e4 | z4 c4 | d4 d4 | e2 (AB cdef | e2) (f4 ed) | %326
w: o,|in quo mi-|hi||spem de-|di- sti,|spem|de- di-|sti, de- * * * * *|* di- * *|
 e16 |] %327
w: sti.|
V:4
 z4 F,4- | F,2 G,2 A,4 | D,4 F,4- | F,2 G,2 A,4 | D,4 A,4- | A,2 B,2 C4 | F,4 A,4- | A,2 B,2 C4 | %8
w: Me-|* mor e-|sto ver-|* bi tu-|i ser-|* vo tu-|o, in|_ quo mi-|
 F,2 (C3 B,A,G, | F,2) G,2 E,4 | D,8- | D,8- | D,8 | z8 | z8 | z8 | z8 | z8 | z8 | z8 | z8 | D,8 | %22
w: hi spem _ _ _|_ de- di-|sti.|_||||||||||Haec|
 D,4 F,4- | F,2 F,2 F,2 F,2 | E,2 C,2 D,2 E,2 | F,2 D,2 C,2 C2- | (CB, A,2 G,4) | F,8 | z8 | z8 | %30
w: me con-|* so- la- ta|est in hu- mi-|li- ta- te me-||a,|||
 z8 | z8 | z8 | z4 G,4 | A,3 G, (F,2 E,2 | D,3) F, E,4 | D,3 E, F,2 G,2- | (G,F, D,2) A,4 | D,8- | %39
w: |||e-|lo- qui- um _|_ tu- um|vi- vi- fi- ca-|* * * vit|me.|
 D,8 | z4 D,4 | E,4 D,4 | G,4 G,4 | F,4 _B,4 | A,4 G,4 | F,6 F,2 | G,4 D,4- | D,4 z4 | z8 | z8 | %50
w: _|Su-|per- bi|i- ni-|que a-|ge- bant|us- que-|qua- que;|_|||
 z8 | z8 | z8 | z4 z2 D,2 | F,2 F,2 F,4 | (C,D,E,F, G,2) A,2- | (A,G, C4 =B,2) | C4 A,4 | %58
w: |||a|le- ge au-|tem _ _ _ _ tu-||a non|
 G,2 F,2 G,4 | F,8 | z4 C4 | D2 D,E, F,G,A,B, | C2 (D4 ^C2) | D2 D,2 (F,3 G, | A,2) _B,2 A,4 | %65
w: de- cli- na-|vi,|non|de- * * * * * *|cli- na- *|vi, non de- *|* cli- na-|
 D,4 z2 D,2 | D,2 D,2 D,4 | A,,8- | A,,8 || z4 C,4 | D,4 E,4 | F,4 z2 D,2 | E,2 F,2 G,4 | %73
w: vi, non|de- cli- na-|vi.|_|Me-|mor fu-|i ju-|di- ci- o-|
 F,2 D,2 F,4 | E,2 C,2 D,2 E,2 | F,4 E,4- | E,2 E,2 E,2 G,2- | (G,2 ^F,E, F,2) G,2 | E,4 z2 G,2 | %79
w: rum tu- o-|rum a sae- cu-|lo, Do-|* mi- ne, Do-|* * * * mi-|ne, et|
 A,3 G, =F,2 E,2 | D,4 z4 | z4 z2 D,2 | D,2 D,2 D,2 F,2- | F,2 (E,3 C,)(D,E,) | (F,G,) A,4 ^G,2 | %85
w: con- so- la- tus|sum.|De-|fe- cti- o te-|* nu- * it, _|te- * nu- it|
 A,8 | z4 z2 A,2 | A,2 F,2 =G,2 A,2 | D,4 z2 D,2 | E,2 F,2 G,2 E,2 | D,4 z4 | z8 | z8 | z8 | z8 | %95
w: me,|pro|pec- ca- to- ri-|bus de-|re- lin- quen- ti-|bus.|||||
 D,4 D,2 D,2 | D,4 C,4 | (D,4 F,4-) | F,2 (E,D, E,4) | A,,8 | z8 | z8 | z8 | D,4 D,2 D,2 | %104
w: Can- ta- bi-|les mi-|hi _|_ e- * *|rant||||ju- sti- fi-|
 D,4 C,4 | D,4 F,4- | F,2 (E,D, E,4) | A,,8 | z8 | z8 | z8 | z4 A,4 | _B,4 A,4 | z2 D,2 C,2 C,2 | %114
w: ca- ti-|o- nes|_ tu- * *|ae||||in|lo- co|pe- re- gri-|
 F,6 E,2 | D,2 C,2 =B,,4 | A,,8- | A,,8 | z8 | z8 | z8 | z8 | z4 A,,4 | E,4 E,4 | D,8 | A,8 | %126
w: na- ti-|o- nes me-|ae.|_|||||Me-|mor fu-|i|no-|
 G,4 z2 G,2 | F,2 D,2 F,4 | E,6 (D,C, | B,,3) A,, (B,,4 | A,,8) | z8 | z8 | z8 | z8 | z4 z2 E,2 | %136
w: cte no-|mi- nis tu-|i, Do- *|* mi- ne,|_|||||et|
 E,2 E,2 G,4 | D,4 z2 A,2- | A,2 G,2 A,4 | E,8 | z8 | z8 | z8 | z8 | z4 D,4 | D,4 D,4 | A,8 | %147
w: cu- sto- di-|vi le-|* gem tu-|am.|||||Haec|fa- cta|est|
 (G,6 F,2) | D,8- | D,8 | z8 | z8 | z8 | z8 | z8 | A,4 A,4 | z2 A,2 A,2 A,2 | A,2 A,2 A,2 A,2 | %158
w: mi- *|hi,|_||||||qui- a|ju- sti- fi-|ca- ti- o- nes|
 (A,4 G,4) | A,4 (C3 B, | A,2) G,2 F,4 | E,4 z2 E,2 | E,4 A,,4 | E,8- | E,8 !fermata!z8 || z8 | %166
w: tu- *|as ex- *|* qui- si-|vi, ex-|qui- si-|vi.|_||
 z8 | z8 | z8 | z8 | z8 | z8 | z8 | z8 | z8 | D,6 E,2 | F,2 G,2 A,4 | z4 A,4 | A,2 A,2 A,4 | %179
w: |||||||||De- pre-|ca- tus sum|fa-|ci- em tu-|
 E,4 z2 G,2 | G,2 G,2 G,4 | D,3 E, F,G, A,2- | A,(G, E,2) F,4 | E,4 z4 | C,6 C,2 | C,2 C,2 D,4 | %186
w: am in|to- to cor-||* de _ me-|o;|mi- se-|re- re me-|
 A,,8- | A,,8 | z8 | z8 | z8 | D,4 G,4 | F,4 D,4 | (A,3 B,) C2 F,2- | (F,2 E,D, C,D,E,F,) | %195
w: i.|_||||Co- gi-|ta- vi|vi- * as me-||
 (E,A,,) (A,4 ^G,2) | A,4 D,4 | G,4 F,4 | D,4 (A,3 B,) | C2 (F,4 E,D, | C,D,E,F,) (E,A,,) A,2- | %201
w: as, _ me- *|as, et|con- ver-|ti pe- *|des me- * *|* * * * os, _ me-|
 (A,2 ^G,2) A,4 | D,4 A,4- | A,2 G,2 F,2 E,2 | D,4 (F,4 | E,3 D, E,4) | D,8 | z8 | z8 | %209
w: * * os|in te-|* sti- mo- ni-|a tu-||a.|||
 z4 z2 A,,2 | B,,2 C,2 D,4- | D,2 A,,2 B,,2 C,2 | D,3 (F, E,4) | D,4 z4 | z8 | z8 | z8 | F,8 | %218
w: Pa-|ra- tus sum|_ et non sum|tur- ba- *|tus,||||ut|
 F,4 F,4- | F,2 F,2 C,4 | z2 F,4 (E,2 | D,2) C,2 _B,,4 | A,,8 | z8 | z2 A,2 F,2 G,2 | A,4 D,4 | %226
w: cu- sto-|* di- am|man- da-|* ta tu-|a,||man- da- ta|tu- a.|
 z8 | z8 ||[M:3/2] D,8 D,4 | D,4 C,4 F,4- | F,4 E,4 z4 | E,8 E,4 | E,4 D,4 G,4- | G,4 F,4 z4 | %234
w: ||Fu- nes|pec- ca- to-|* rum|cir- cum-|ple- xi sunt|_ me,|
 F,8 F,4 | E,4 A,8 | G,8 z4 | G,8 F,4 | G,4 E,8 ||[M:4/4] D,4 z4 | z8 | z8 | z4 z2 D,2 | %243
w: et le-|gem tu-|am|non sum|o- bli-|tus.|||Me-|
 F,2 F,2 E,4 | D,4 F,4 | E,4 D,4 | z8 | z4 z2 D,2 | C,2 A,,2 B,,2 C,2 | D,4 A,,4 | z8 | z8 | z8 | %253
w: di- a no-|cte sur-|ge- bam||ad|con- fi- ten- dum|ti- bi,||||
 z8 | A,4 G,2 E,2 | F,2 G,2 E,2 F,2 | G,2 E,2 F,2 G,2 | A,2 F,2 E,4 | D,8 | z8 | z8 | A,6 A,2 | %262
w: |su- per ju-|di- ci- a ju-|sti- fi- ca- ti-|o- nes tu-|ae.|||Par- ti-|
 G,4 A,4 | F,4 E,4 ||[M:3/2] E,4 E,4 E,4 | E,8 D,4 | E,4 F,8 | E,12 ||[M:4/4] G,6 G,2 | %269
w: ceps e-|go sum|o- mni- um|ti- men-|ti- um|te,|et cu-|
 G,2 F,2 G,2 E,2 | D,8 | z8 | z8 ||[M:3/2] D,8 C,4 | D,4 E,8 | D,8 z4 | D,8 C,4 | D,4 E,8 || %278
w: sto- di- en- ti-|um|||man- da-|ta tu-|a,|man- da-|ta tu-|
[M:4/4] D,8- | D,8- | D,8 | z8 | (G,3 A,) B,2 (G,A,) | (B,C D4) CB, | A,4 G,4 | z8 | z8 | z8 | z8 | %289
w: a.|_|||Mi- * se- ri- *|cor- * * di- a|tu- a.|||||
 z8 | z8 | z8 | z8 | z8 | z8 | D,4 D,2 D,2 | D,4 (C,3 D, | E,F, G,4) F,2 | (A,2 _B,2) G,4 | F,8 | %300
w: ||||||Glo- ri- a|Pa- tri _|_ _ _ et|Fi- * li-|o|
 z8 | z8 | z8 | z4 _B,4- | B,2 _B,2 A,2 F,2 | (G,3 F,) E,4 | D,4 z2 D,2- | D,2 D,2 D,2 D,2 | %308
w: |||et|_ Spi- ri- tu-|i _ San-|cto, et|_ Spi- ri- tu-|
 E,4 A,,4 | D,8 | z8 | D,3 E, F,2 D,2 | z8 | D,3 E, F,2 D,2 | z8 | F,3 G, A,2 F,2 | z8 | %317
w: i San-|cto.||Me- mor e- sto||ver- bi tu- i||ser- vo tu- o,||
 A,3 B, C2 A,2 | z8 | z8 | D6 D2 | D4 A,4 | z4 A,4 | _B,4 B,4 | A,8- | A,8- | A,16 |] %327
w: in quo mi- hi|||spem de-|di- sti,|spem|de- di-|sti.|_||

